X: 1
T: Sl\"angpolska efter Byss-Calle
D: JPP "String Tease" Northside
M: 3/4
L: 1/16
K: G
|: "G"d3B G2G2 BABd | "D7"A2AB "G"G2G2 BABd |\
"C"cBce "G"d2Bd "Am"cBAG |"D7"FGAB [1,3 AGFE D4 :|[2,4 A2BA "G"G4 :|
|: "G"d2d2 "D7"d2ef "G"g4 | "C"g2fe "D7"d2ef "G"g2B2 |\
"C"cBce "G"d2Bd "Am"cBAG | "D7"FGAB [1,3 AGFE D4 :|[2,4 A2BA "G"G4 :|

%%sep 1 1 500

